mimes/32/application-javascript.svg

<?xml version="1.0" encoding="UTF-8" standalone="no"?>
<svg
   xmlns:dc="http://purl.org/dc/elements/1.1/"
   xmlns:cc="http://creativecommons.org/ns#"
   xmlns:rdf="http://www.w3.org/1999/02/22-rdf-syntax-ns#"
   xmlns:svg="http://www.w3.org/2000/svg"
   xmlns="http://www.w3.org/2000/svg"
   xmlns:xlink="http://www.w3.org/1999/xlink"
   xmlns:sodipodi="http://sodipodi.sourceforge.net/DTD/sodipodi-0.dtd"
   xmlns:inkscape="http://www.inkscape.org/namespaces/inkscape"
   version="1.1"
   width="32"
   height="32"
   id="svg3182"
   inkscape:version="0.91 r13725"
   sodipodi:docname="application-javascript.svg">
  <sodipodi:namedview
     pagecolor="#ffffff"
     bordercolor="#666666"
     borderopacity="1"
     objecttolerance="10"
     gridtolerance="10"
     guidetolerance="10"
     inkscape:pageopacity="0"
     inkscape:pageshadow="2"
     inkscape:window-width="640"
     inkscape:window-height="480"
     id="namedview509" />
  <defs
     id="defs3184">
    <linearGradient
       id="linearGradient3977">
      <stop
         id="stop3979"
         style="stop-color:#ffffff;stop-opacity:1"
         offset="0" />
      <stop
         id="stop3981"
         style="stop-color:#ffffff;stop-opacity:0.23529412"
         offset="0.01187616" />
      <stop
         id="stop3983"
         style="stop-color:#ffffff;stop-opacity:0.15686275"
         offset="0.99133235" />
      <stop
         id="stop3985"
         style="stop-color:#ffffff;stop-opacity:0.39215687"
         offset="1" />
    </linearGradient>
    <linearGradient
       id="linearGradient3600-4">
      <stop
         id="stop3602-7"
         style="stop-color:#f4f4f4;stop-opacity:1"
         offset="0" />
      <stop
         id="stop3604-6"
         style="stop-color:#dbdbdb;stop-opacity:1"
         offset="1" />
    </linearGradient>
    <linearGradient
       id="linearGradient5060">
      <stop
         id="stop5062"
         style="stop-color:#000000;stop-opacity:1"
         offset="0" />
      <stop
         id="stop5064"
         style="stop-color:#000000;stop-opacity:0"
         offset="1" />
    </linearGradient>
    <linearGradient
       id="linearGradient5048">
      <stop
         id="stop5050"
         style="stop-color:#000000;stop-opacity:0"
         offset="0" />
      <stop
         id="stop5056"
         style="stop-color:#000000;stop-opacity:1"
         offset="0.5" />
      <stop
         id="stop5052"
         style="stop-color:#000000;stop-opacity:0"
         offset="1" />
    </linearGradient>
    <linearGradient
       x1="23.99999"
       y1="6.1856723"
       x2="23.99999"
       y2="41.757225"
       id="linearGradient3013"
       xlink:href="#linearGradient3977"
       gradientUnits="userSpaceOnUse"
       gradientTransform="matrix(0.56756757,0,0,0.72972971,2.378382,-2.5135063)" />
    <linearGradient
       x1="25.132275"
       y1="0.98520643"
       x2="25.132275"
       y2="47.013336"
       id="linearGradient3016"
       xlink:href="#linearGradient3600-4"
       gradientUnits="userSpaceOnUse"
       gradientTransform="matrix(0.62856997,0,0,0.60839392,0.91431981,-0.5347905)" />
    <radialGradient
       cx="605.71429"
       cy="486.64789"
       r="117.14286"
       fx="605.71429"
       fy="486.64789"
       id="radialGradient3021"
       xlink:href="#linearGradient5060"
       gradientUnits="userSpaceOnUse"
       gradientTransform="matrix(0.01566318,0,0,0.00823529,17.610433,25.980565)" />
    <radialGradient
       cx="605.71429"
       cy="486.64789"
       r="117.14286"
       fx="605.71429"
       fy="486.64789"
       id="radialGradient3024"
       xlink:href="#linearGradient5060"
       gradientUnits="userSpaceOnUse"
       gradientTransform="matrix(-0.01566318,0,0,0.00823529,14.389566,25.980565)" />
    <linearGradient
       x1="302.85715"
       y1="366.64789"
       x2="302.85715"
       y2="609.50507"
       id="linearGradient3027"
       xlink:href="#linearGradient5048"
       gradientUnits="userSpaceOnUse"
       gradientTransform="matrix(0.04576928,0,0,0.00823529,-0.5423243,25.980548)" />
    <linearGradient
       id="linearGradient3104-6">
      <stop
         id="stop3106-3"
         style="stop-color:#000000;stop-opacity:0.31782946"
         offset="0" />
      <stop
         id="stop3108-9"
         style="stop-color:#000000;stop-opacity:0.24031007"
         offset="1" />
    </linearGradient>
    <linearGradient
       x1="-51.786404"
       y1="50.786446"
       x2="-51.786404"
       y2="2.9062471"
       id="linearGradient3047"
       xlink:href="#linearGradient3104-6"
       gradientUnits="userSpaceOnUse"
       gradientTransform="matrix(0.53064143,0,0,0.58970049,39.269602,-1.7919191)" />
  </defs>
  <metadata
     id="metadata3187">
    <rdf:RDF>
      <cc:Work
         rdf:about="">
        <dc:format>image/svg+xml</dc:format>
        <dc:type
           rdf:resource="http://purl.org/dc/dcmitype/StillImage" />
        <dc:title />
      </cc:Work>
    </rdf:RDF>
  </metadata>
  <rect
     width="22.100021"
     height="2"
     x="4.9499893"
     y="29"
     id="rect2879"
     style="opacity:0.15;fill:url(#linearGradient3027);fill-opacity:1;fill-rule:nonzero;stroke:none;stroke-width:1;marker:none;visibility:visible;display:inline;overflow:visible" />
  <path
     d="m 4.9499887,29.000086 c 0,0 0,1.99989 0,1.99989 -0.806615,0.0038 -1.950002,-0.448074 -1.950002,-1.000074 0,-0.552 0.900121,-0.999816 1.950002,-0.999816 z"
     id="path2881"
     style="opacity:0.15;fill:url(#radialGradient3024);fill-opacity:1;fill-rule:nonzero;stroke:none;stroke-width:1;marker:none;visibility:visible;display:inline;overflow:visible" />
  <path
     d="m 27.050011,29.000086 c 0,0 0,1.99989 0,1.99989 0.806614,0.0038 1.950002,-0.448074 1.950002,-1.000074 0,-0.552 -0.900122,-0.999816 -1.950002,-0.999816 z"
     id="path2883"
     style="opacity:0.15;fill:url(#radialGradient3021);fill-opacity:1;fill-rule:nonzero;stroke:none;stroke-width:1;marker:none;visibility:visible;display:inline;overflow:visible" />
  <path
     d="m 5,1 c 5.041316,0 21.999973,0.00179 21.999973,0.00179 L 27,29 C 27,29 12.333334,29 5,29 5,19.666667 5,10.333336 5,1.0000041 z"
     id="path4160-3"
     style="fill:url(#linearGradient3016);fill-opacity:1;stroke:none;display:inline" />
  <path
     d="m 26.5,28.5 -21,0 0,-27 21,0 z"
     id="rect6741-1"
     style="fill:none;stroke:url(#linearGradient3013);stroke-width:1;stroke-linecap:round;stroke-linejoin:miter;stroke-miterlimit:4;stroke-opacity:1;stroke-dasharray:none;stroke-dashoffset:0" />
  <path
     d="m 4.4999542,0.4999439 c 5.2704806,0 23.0000548,0.002 23.0000548,0.002 l 2.4e-5,28.9981121 c 0,0 -15.333386,0 -23.0000788,0 0,-9.666722 0,-19.333346 0,-28.9999561 z"
     id="path4160-6-1"
     style="fill:none;stroke:url(#linearGradient3047);stroke-width:0.9999218;stroke-linecap:butt;stroke-linejoin:round;stroke-miterlimit:4;stroke-opacity:1;stroke-dasharray:none;stroke-dashoffset:0;display:inline" />
  <path
     style="font-size:18px;font-style:normal;font-variant:normal;font-weight:600;font-stretch:normal;text-align:center;line-height:125%;letter-spacing:0px;word-spacing:0px;writing-mode:lr-tb;text-anchor:middle;fill:#ffffff;fill-opacity:1;stroke:none;font-family:Open Sans;-inkscape-font-specification:Open Sans Semi-Bold;opacity:0.40000000000000002;color:#000000;fill-rule:nonzero;stroke-width:1;marker:none;visibility:visible;display:inline;overflow:visible;enable-background:accumulate"
     d="m 12.375,12.9995 -4.375,3.5 4.375,3.5 L 13,19.21825 9.59375,16.4995 13,13.78075 12.375,12.9995 z m 7.25,0 L 19,13.78075 22.40625,16.4995 19,19.21825 l 0.625,0.78125 4.375,-3.5 -4.375,-3.5 z M 16.25,13.687 c -0.566852,7e-6 -0.84375,0.254339 -0.84375,0.8125 0,0.266152 0.07322,0.473448 0.21875,0.625 0.145542,0.151561 0.349234,0.218755 0.625,0.21875 0.275766,5e-6 0.479455,-0.0672 0.625,-0.21875 0.149371,-0.155247 0.218747,-0.362545 0.21875,-0.625 -3e-6,-0.262445 -0.04579,-0.477137 -0.1875,-0.625 C 16.764534,13.726645 16.537255,13.687007 16.25,13.687 z m -0.6875,5.03125 c -0.140715,0.803612 -0.339434,1.658512 -0.625,2.59375 l 1.03125,0 c 0.529745,-1.014906 0.895092,-1.855723 1.09375,-2.5 L 17,18.71825 l -1.4375,0 z"
     id="path3044" />
  <path
     style="font-size:18px;font-style:normal;font-variant:normal;font-weight:600;font-stretch:normal;text-align:center;line-height:125%;letter-spacing:0px;word-spacing:0px;writing-mode:lr-tb;text-anchor:middle;fill:#999999;fill-opacity:1;stroke:none;font-family:Open Sans;-inkscape-font-specification:Open Sans Semi-Bold"
     d="M 12.375,12 8,15.5 12.375,19 13,18.21875 9.59375,15.5 13,12.78125 12.375,12 z m 7.25,0 L 19,12.78125 22.40625,15.5 19,18.21875 19.625,19 24,15.5 19.625,12 z m -3.375,0.6875 c -0.566852,7e-6 -0.84375,0.254339 -0.84375,0.8125 0,0.266152 0.07322,0.473448 0.21875,0.625 0.145542,0.151561 0.349234,0.218755 0.625,0.21875 0.275766,5e-6 0.479455,-0.0672 0.625,-0.21875 0.149371,-0.155247 0.218747,-0.362545 0.21875,-0.625 -3e-6,-0.262445 -0.04579,-0.477137 -0.1875,-0.625 C 16.764534,12.727145 16.537255,12.687507 16.25,12.6875 z m -0.6875,5.03125 c -0.140715,0.803612 -0.339434,1.658512 -0.625,2.59375 l 1.03125,0 c 0.529745,-1.014906 0.895092,-1.855723 1.09375,-2.5 L 17,17.71875 l -1.4375,0 z"
     id="path3044-4" />
</svg>

<svg xmlns="http://www.w3.org/2000/svg" xmlns:xlink="http://www.w3.org/1999/xlink" viewBox="0 0 32 32"><defs><linearGradient id="a"><stop offset="0" stop-color="#fff"/><stop offset=".012" stop-color="#fff" stop-opacity=".235"/><stop offset=".991" stop-color="#fff" stop-opacity=".157"/><stop offset="1" stop-color="#fff" stop-opacity=".392"/></linearGradient><linearGradient id="b"><stop offset="0" stop-color="#f4f4f4"/><stop offset="1" stop-color="#dbdbdb"/></linearGradient><linearGradient id="c"><stop offset="0"/><stop offset="1" stop-opacity="0"/></linearGradient><linearGradient id="d"><stop offset="0" stop-opacity="0"/><stop offset=".5"/><stop offset="1" stop-opacity="0"/></linearGradient><linearGradient x1="24" y1="6.186" x2="24" y2="41.757" id="j" xlink:href="#a" gradientUnits="userSpaceOnUse" gradientTransform="matrix(.56757 0 0 .72973 2.378 -2.514)"/><linearGradient x1="25.132" y1=".985" x2="25.132" y2="47.013" id="i" xlink:href="#b" gradientUnits="userSpaceOnUse" gradientTransform="matrix(.62857 0 0 .6084 .914 -.535)"/><radialGradient cx="605.714" cy="486.648" r="117.143" fx="605.714" fy="486.648" id="h" xlink:href="#c" gradientUnits="userSpaceOnUse" gradientTransform="matrix(.01566 0 0 .00824 17.61 25.98)"/><radialGradient cx="605.714" cy="486.648" r="117.143" fx="605.714" fy="486.648" id="g" xlink:href="#c" gradientUnits="userSpaceOnUse" gradientTransform="matrix(-.01566 0 0 .00824 14.39 25.98)"/><linearGradient x1="302.857" y1="366.648" x2="302.857" y2="609.505" id="f" xlink:href="#d" gradientUnits="userSpaceOnUse" gradientTransform="matrix(.04577 0 0 .00824 -.542 25.98)"/><linearGradient id="e"><stop offset="0" stop-opacity=".318"/><stop offset="1" stop-opacity=".24"/></linearGradient><linearGradient x1="-51.786" y1="50.786" x2="-51.786" y2="2.906" id="k" xlink:href="#e" gradientUnits="userSpaceOnUse" gradientTransform="matrix(.53064 0 0 .5897 39.27 -1.792)"/></defs><path opacity=".15" fill="url(#f)" overflow="visible" d="M4.95 29h22.1v2H4.95z"/><path d="M4.95 29v2c-.807.004-1.95-.448-1.95-1s.9-1 1.95-1z" opacity=".15" fill="url(#g)" overflow="visible"/><path d="M27.05 29v2c.807.004 1.95-.448 1.95-1s-.9-1-1.95-1z" opacity=".15" fill="url(#h)" overflow="visible"/><path d="M5 1l22 .002V29H5V1z" fill="url(#i)"/><path d="M26.5 28.5h-21v-27h21z" fill="none" stroke="url(#j)" stroke-linecap="round"/><path d="M4.5.5l23 .002V29.5h-23V.5z" fill="none" stroke="url(#k)" stroke-linejoin="round"/><path style="text-align:center;line-height:125%;-inkscape-font-specification:Open Sans Semi-Bold" d="M12.375 13L8 16.5l4.375 3.5.625-.782L9.594 16.5 13 13.78l-.625-.78zm7.25 0l-.625.78 3.406 2.72L19 19.218l.625.782L24 16.5 19.625 13zm-3.375.687c-.567 0-.844.254-.844.813 0 .266.073.473.22.624.145.152.348.22.624.22s.48-.068.625-.22c.15-.155.22-.362.22-.625s-.047-.48-.19-.628c-.14-.147-.368-.187-.655-.187zm-.688 5.03c-.14.805-.34 1.66-.624 2.595h1.03c.53-1.015.896-1.856 1.095-2.5L17 18.718h-1.438z" font-size="18" font-weight="600" letter-spacing="0" word-spacing="0" text-anchor="middle" fill="#fff" font-family="Open Sans" opacity=".4" color="#000" overflow="visible"/><path style="text-align:center;line-height:125%;-inkscape-font-specification:Open Sans Semi-Bold" d="M12.375 12L8 15.5l4.375 3.5.625-.78-3.406-2.72L13 12.78l-.625-.78zm7.25 0l-.625.78 3.406 2.72L19 18.22l.625.78L24 15.5 19.625 12zm-3.375.688c-.567 0-.844.254-.844.812 0 .266.073.473.22.625.145.152.348.22.624.22s.48-.068.625-.22c.15-.155.22-.363.22-.625s-.047-.477-.19-.625c-.14-.148-.368-.187-.655-.188zm-.688 5.03c-.14.804-.34 1.66-.624 2.595h1.03c.53-1.015.896-1.856 1.095-2.5L17 17.718h-1.438z" font-size="18" font-weight="600" letter-spacing="0" word-spacing="0" text-anchor="middle" fill="#999" font-family="Open Sans"/></svg>
